X:1
T: Maloney's Fancy
C:
R:Jig
Q:180
K:D
M:6/8
L:1/16
D2|F4A2 A2F2A2|A2F2A2 d4B2|A2G2F2 G4A2|B2G2E2 E4d2|F4A2 A2F2A2|A2F2A2 d4B2|A2G2F2 G4B2|A2F2D2 D4cd|
e2c2A2 A2B2A2|e2d2c2 d4B2|A2G2F2 G4B2|B2G2E2 E4F2|e2c2A2 A2B2A2|e2d2c2 d4B2|A2G2F2 G4B2|A2F2D2 D4fg|
a2g2f2 g4e2|f2e2c2 d4B2|A2G2F2 G4B2|B2G2E2 E2f2g2|a2g2f2 g4e2|f2d2c2 d4B2|A2G2F2 G4B2|A2F2D2 D4D2|
F4A2 A2F2A2|A2F2A2 d4B2|A2G2F2 G4A2|B2G2E2 E4d2|F4A2 A2F2A2|A2F2A2 d4B2|A2G2F2 G4B2|A2F2D2 D4||
